!!!COM: Karl Enslin
!!!LYR: Friedrich Frobel
!!!OTL: Little Rabbit in Your Burrow
!!!OTL@@DE: Häschen in der Grube
!!!ARE: Deutschland
**kern
*clefG2
*k[f#c#]
*M2/4
*MM 60
=1
{8d
8e
8f#
8g
=2
4a
4a
=3
(8b
8g)
(8dd
8b)
=4
4a}
4r
=5
{(8b
8g)
(8dd
8b)
=6
4a}
4r
=7
{8a
8g
8g
8g
=8
8g
8f#
4f#}
=9
{8f#
8e
8f#
8e
=10
8d
8f#
4a}
=11
{8a
8a
8dd}
8r
=12
{8a
8a
8dd}
8r
=13
{4a
4a
=14
4d}
4r
==
*-